assets/img/icon-youtube.svg

<?xml version="1.0" encoding="UTF-8"?>
<svg width="24px" height="17px" viewBox="0 0 24 17" version="1.1" xmlns="http://www.w3.org/2000/svg" xmlns:xlink="http://www.w3.org/1999/xlink">
    <!-- Generator: Sketch 47.1 (45422) - http://www.bohemiancoding.com/sketch -->
    <title>icon-youtube</title>
    <desc>Created with Sketch.</desc>
    <defs>
        <path d="M11.9947839,0.6 L12.0051926,0.6 C12.0051926,0.6 17.0430427,0.6 20.4015155,0.826598659 C20.8706133,0.87881306 21.8936061,0.883242841 22.8062147,1.77540516 C23.52578,2.45515728 23.7602937,3.99876059 23.7602937,3.99876059 C23.7602937,3.99876059 23.9999765,5.81146214 23.9999765,7.62411983 L23.9999765,9.32353302 C23.9999765,11.1361907 23.7602937,12.9488703 23.7602937,12.9488703 C23.7602937,12.9488703 23.52578,14.4924956 22.8062147,15.1722477 C21.8936061,16.0644319 20.8706133,16.0688398 20.4015155,16.1210761 C17.0430427,16.3476528 12,16.3547361 12,16.3547361 C12,16.3547361 5.76014098,16.3015568 3.84009398,16.1297164 C3.30593568,16.0362305 2.1067228,16.0644319 1.19376181,15.1722477 C0.474196485,14.4924956 0.240011748,12.9488703 0.240011748,12.9488703 C0.240011748,12.9488703 0,11.1361907 0,9.32353302 L0,7.62411983 C0,5.81146214 0.240011748,3.99876059 0.240011748,3.99876059 C0.240011748,3.99876059 0.474196485,2.45515728 1.19376181,1.77540516 C2.1067228,0.883242841 3.12931617,0.87881306 3.59846101,0.826598659 C6.95705125,0.6 11.9947839,0.6 11.9947839,0.6 Z M9.52117088,5.08907886 L9.5222752,11.3828769 L16.0060698,8.24694268 L9.52117088,5.08907886 Z" id="path-1"></path>
    </defs>
    <g id="Page-1" stroke="none" stroke-width="1" fill="none" fill-rule="evenodd">
        <g id="design" transform="translate(-1216.000000, -1958.000000)">
            <g id="Web-Components/Footer" transform="translate(0.000000, 1629.000000)">
                <g id="Group-2" transform="translate(0.000000, 1.000000)">
                    <g id="Group-5" transform="translate(1141.000000, 325.000000)">
                        <g id="icon-youtube" transform="translate(75.000000, 3.000000)">
                            <mask id="mask-2" fill="white">
                                <use xlink:href="#path-1"></use>
                            </mask>
                            <use id="icon-insta" fill="#9A9A9A" xlink:href="#path-1"></use>
                        </g>
                    </g>
                </g>
            </g>
        </g>
    </g>
</svg>

<svg width="24" height="17" viewBox="0 0 24 17" xmlns="http://www.w3.org/2000/svg" xmlns:xlink="http://www.w3.org/1999/xlink"><title>icon-youtube</title><defs><path d="M11.995.6h.01s5.038 0 8.397.227c.47.052 1.492.056 2.404.948.72.68.954 2.224.954 2.224S24 5.81 24 7.623v1.7c0 1.812-.24 3.625-.24 3.625s-.234 1.542-.954 2.222c-.912.892-1.935.897-2.404.95-3.36.226-8.402.233-8.402.233s-6.24-.053-8.16-.225c-.534-.094-1.733-.066-2.646-.958-.72-.68-.954-2.223-.954-2.223S0 11.135 0 9.323v-1.7C0 5.81.24 4 .24 4s.234-1.545.954-2.225C2.107.883 3.13.88 3.598.827 6.958.6 11.995.6 11.995.6zM9.52 5.09l.002 6.293 6.484-3.136L9.52 5.09z" id="a"/></defs><use fill="#9A9A9A" xlink:href="#a" fill-rule="evenodd"/></svg>
